!!!OTL: 562a. Botschaft durch die Nachtigall.
!!!ARE: Europa, Mitteleuropa, Deutschland, Coburg
!!!SCT: E0562
!!!TXL: @@DE
!!!YEM: Copyright 1995, estate of Helmut Schaffrath.
**kern	**text
*ICvox	*
*M4/4	*
*met(c)	*
*k[b-]	*
*F:	*
!LO:TX:a:t=Mäßig.	!
!LO:TX:a:t=Mel. aus dem Coburgiſchen.	!
{4.f	Hoff-
8g	-nung,
=1	=1
4a	Hoff-
4a	-nung,
(8aqq	.
4g)	komm
4g	nur
=2	=2
4f	bald,
4r}	.
{4.a	mei-
8b-	-nes
=3	=3
4cc	Her-
4cc	-ʒens
(8ccqq	.
4b-)	Au-
4b-	-fent-
=4	=4
4a	-halt!
4r}	.
{4cc	Mein
4cc	Ver-
=5	=5
4dd	-lan-
8ddL	-gen
8ccJ	.
4b-	ſteht
8b-L	al-
8ddJ	.
=6	=6
4cc	-lein
4r}	.
{4a	ʒu
4a	dem
=7	=7
(16ccqq	.
4b-)	Herʒ-
8b-	-al-
8b-	-ler-
4g	-lieb-
4g	-ſten
=8	=8
4f	mein.
4r}	.
{4cc	Mein
4cc	Ver-
=9	=9
4dd	-lan-
8ddL	-gen
8ccJ	.
4b-	ſteht
8b-L	al-
8ddJ	.
=10	=10
4cc	-lein
4r}	.
{4a	ʒu
4a	dem
=11	=11
(16ccqq	.
4b-)	Herʒ-
8b-	-al-
8b-	-ler-
4g	-lieb-
4g	-ſten
=12	=12
4f	mein.
4r}	.
==	==
!!!AGN: Liebes - Lied
!!!ONB: ESAC (Essen Associative Code) Database: ERK1
!!!AMT: simple quadruple
!!!AIN: vox
!!!EED: Helmut Schaffrath
!!!EEV: 1.0
!!!GTL: Liebeslieder [Neuere (aus dem 18. bis 19. Jahrh.) - Liebeslust]
!!!URL-scan: https://rosdok.uni-rostock.de/mcrviewer/recordIdentifier/rosdok_ppn745177662/iview2/phys_0393.iview2?x=-128.77276441889308&y=145.49930876353756&scale=0.5870222003877485&rotation=0&layout=singlePageLayout
!!!ENC: Anna Maria Matuszewska
!!!EEV: 2024/10/12
*-	*-
